!!!!SEGMENT: pl-sa--173-a-v-3--006_szczurowski-jacek--missa-ex-d-agnus-dei.krn
!!!cenid: 17xx:258
!!!COM: Szczurowski, Jacek
!!!COM-rismID: pe30017605
!!!CDT: 1716/08/15-~1733
!!!CNT: Polish
!!!OPR: Missa ex D
!!!OTL: Agnus Dei
!!!OMV: 006
!!!PDT:
!!!AGN: Sacred; Mass
!!!SMS-siglum: PL-SA
!!!SMS-shelfmark: 173/A V 3
!!!SMS-shelfwork: 006-006 M
!!!NIFC-rismSourceID: 1001035621
!!!NIFC-rismChildID: 1001035621
!!!NIFC-islandoraID:
!!!URL-pdf-islandora:
!!!URL-scan: https://bc.bdsandomierz.pl/dlibra/publication/1507/edition/1475/content @EN{Scan in the Sandomierz Diocese Digital Library} @PL{Skany w portalu Cyfrowa Biblioteka Diecezjalna w Sandomierzu}
!!!ONB-nifc: UWAGA: części Mszy: Kyrie, Gloria, Credo, Sanctus, Benedictus, Agnus Dei
!!!AIN: 1 bass 2 clrno 1 organ 1 soprn 2 violn
!!!key: D
!!!OMD:
!!!OMD-mod: Lento
**kern	**fba	**kern	**dynam	**kern	**dynam	**kern	**text	**kern	**text	**kern	**kern
*	*	*group3	*	*group3	*	*group2	*	*group2	*	*group1	*group1
*part7	*	*part6	*part6	*part5	*part5	*part4	*part4	*part3	*part3	*part2	*part1
*staff7	*	*staff6	*	*staff5	*	*staff4	*staff4	*staff3	*staff3	*staff2	*staff1
*I"Fundamento.	*	*I"Violino. 2do.	*	*I"Violino 1mo.	*	*I"Basso	*	*I"Canto	*	*I"Clarino 2do. Ex D.	*I"Clarino. Imo. Ex. D.
*mI"Basso continuo	*	*mI"Violino II	*	*mI"Violino I	*	*	*	*mI"Soprano	*	*mI"Clarino II in D	*mI"Clarino I in D
*I'bc	*	*I'vl 2	*	*I'vl 1	*	*I'B	*	*I'S	*	*I'clno 2 in D	*I'clno 1 in D
*Iorgan	*	*Ivioln	*	*Ivioln	*	*Ibass	*	*Isoprn	*	*Iclrno	*Iclrno
*ICklav	*	*ICstr	*	*ICstr	*	*ICvox	*	*ICvox	*	*ICbras	*ICbras
*clefF4	*	*clefG2	*	*clefG2	*	*clefF4	*	*clefC1	*	*clefG2	*clefG2
*	*	*	*	*	*	*	*	*mclefG2	*	*	*
*	*	*	*	*	*	*	*	*	*	*ITrd-1c-2	*ITrd-1c-2
*k[f#c#]	*	*k[f#c#]	*	*k[f#c#]	*	*k[f#c#]	*	*k[f#c#]	*	*k[f#c#]	*k[f#c#]
*D:	*	*D:	*	*D:	*	*D:	*	*D:	*	*D:	*D:
*M4/4	*	*M4/4	*	*M4/4	*	*M4/4	*	*M4/4	*	*M4/4	*M4/4
*met(c)	*	*met(c)	*	*met(c)	*	*met(c)	*	*met(c)	*	*met(c)	*met(c)
*mmet(c)	*	*mmet(c)	*	*mmet(c)	*	*mmet(c)	*	*mmet(c)	*	*mmet(c)	*mmet(c)
=1	=1	=1	=1	=1	=1	=1	=1	=1	=1	=1	=1
!	!	!	!	!	!	!	!	!	!	!LO:MO:mod=!LO&colon;TX&colon;a&colon;t=Solo	!
!LO:TX:a:t=Solo.:mod=	!	!LO:TX:a:t=Lente Solo.:mod=	!	!LO:TX:a:t=Lente.:mod=	!	!	!	!LO:TX:a:t=Solo:mod=	!	!LO:TX:a:t=ada Solo.	!LO:TX:a:t=Solo
8D\L	.	8ff#\L	.	8aa\L	.	00r	.	00r	.	8ff#\L	8aa\L
8D\	.	8ee\	.	8gg\	.	.	.	.	.	8ee\	8gg\
8D\	.	8dd\	.	8ff#\	.	.	.	.	.	8dd\	8ff#\
8D\J	.	8ee\J	.	8gg\J	.	.	.	.	.	8ee\J	8gg\J
8D\L	.	4ff#\	.	4aa\	.	.	.	.	.	4ff#\	4aa\
8E\	.	.	.	.	.	.	.	.	.	.	.
8F#\	.	8r	.	8r	.	.	.	.	.	8r	8r
!	!	!LO:TX:a:t=g:mod=	!	!	!	!	!	!	!	!	!
8G\J	.	8gg\	.	8bb\	.	.	.	.	.	8gg\	8bb\
=2	=2	=2	=2	=2	=2	=2	=2	=2	=2	=2	=2
8D\L	.	8ff#\L	.	8aa\L	.	.	.	.	.	8ff#\L	8aa\L
!LO:SIC:s=8F#	!	!	!	!	!	!	!	!	!	!	!
8F#\J	.	16ee\L	.	16gg\L	.	.	.	.	.	16ee\L	16gg\L
.	.	16dd\JJ	.	16ff#\JJ	.	.	.	.	.	16dd\JJ	16ff#\JJ
!LO:SIC:s=8A	!	!	!	!	!	!	!	!	!	!	!
!LO:TX:a:t=P:problem=mixed beam	!	!	!	!	!	!	!	!	!	!	!
8A\L	.	8ee\L	.	8gg\L	.	.	.	.	.	8ee\L	8gg\L
8AA/J	.	16dd\L	.	16ff#\L	.	.	.	.	.	16dd\L	16ff#\L
.	.	16cc#\JJ	.	16ee\JJ	.	.	.	.	.	16a\JJ	16ee\JJ
!	!	!LO:SIC:s=8ddL	!	!	!	!	!	!	!	!	!
8D/L	.	8ee\L	.	8ff#\L	.	.	.	.	.	8dd\L	8ff#\L
!	!	!LO:SIC:s=8aJ	!	!	!	!	!	!	!	!LO:SIC:s=16ddL	!
8D/	.	8cc#\J	.	8dd\J	.	.	.	.	.	16ee\L	16ff#\L
!	!	!	!	!	!	!	!	!	!	!LO:SIC:s=16eeJJ	!
.	.	.	.	.	.	.	.	.	.	16ff#\JJ	16gg\JJ
8D/	.	8r	.	8r	.	.	.	.	.	8ff#\L	8aa\L
8D/J	.	8gg\	.	8bb\	.	.	.	.	.	8gg\J	8bb\J
=3	=3	=3	=3	=3	=3	=3	=3	=3	=3	=3	=3
8D\L	.	8ff#\L	.	8aa\L	.	.	.	.	.	8ff#\L	8aa\L
!LO:SIC:s=8F#	!	!	!	!	!	!	!	!	!	!	!
8F#\J	.	16ee\L	.	16gg\L	.	.	.	.	.	16ee\L	16gg\L
.	.	16dd\JJ	.	16ff#\JJ	.	.	.	.	.	16dd\JJ	16ff#\JJ
!LO:SIC:s=8A	!	!	!	!	!	!	!	!	!	!	!
!LO:TX:a:t=P:problem=mixed beam	!	!	!	!	!	!	!	!	!	!	!
8A\L	.	8ee\L	.	8gg\L	.	.	.	.	.	8ee\L	8gg\L
8AA/J	.	16dd\L	.	16ff#\L	.	.	.	.	.	16dd\L	16ff#\L
.	.	16cc#\JJ	.	16ee\JJ	.	.	.	.	.	16a\JJ	16ee\JJ
!	!	!	!	!	!	!	!	!	!	!	!LO:MO:mod=*null:null
*	*	*	*	*	*	*	*	*	*	*	*2\right
!	!	!	!	!	!	!	!	!	!	!LO:MO:mod=*tremolo	!
*	*	*	*	*	*	*	*	*	*	*null	*tremolo
8D\L	.	8dd\L	.	8ff#\L	.	.	.	.	.	8dd\L	8ff#\L
8D\	.	8a\J	.	8dd\J	.	.	.	.	.	8dd\	8ff#\
8D\	.	8r	.	8r	.	.	.	.	.	8dd\	8ff#\
8D\J	.	8dd\	.	8ff#\	.	.	.	.	.	8dd\J	8ff#\J
!	!	!	!	!	!	!	!	!	!	!LO:MO:mod=*Xtremolo	!
*	*	*	*	*	*	*	*	*	*	*null	*Xtremolo
=4	=4	=4	=4	=4	=4	=4	=4	=4	=4	=4	=4
8A\L	7_	8cc#\L	.	16ee\LL	.	.	.	.	.	8a/L	8ee\L
.	.	.	.	16cc#\	.	.	.	.	.	.	.
!	!	!	!	!	!	!	!	!	!	!LO:SIC:s=8a	!
8A\	.	8cc#\	.	16a\	.	.	.	.	.	8a/J	8ee\
.	.	.	.	16ee\JJ	.	.	.	.	.	.	.
!	!	!	!	!	!	!	!	!	!	!LO:SIC:s=8ee	!
8A\	.	8ee\	.	16gg\LL	.	.	.	.	.	8ee\L	8gg\
.	.	.	.	16ee\	.	.	.	.	.	.	.
8A\J	.	8ee\J	.	16cc#\	.	.	.	.	.	8ee\J	8gg\J
.	.	.	.	16gg\JJ	.	.	.	.	.	.	.
8D\L	X	8dd\	.	8ff#\	.	.	.	.	.	8dd\	8ff#\
8D\	.	4ff#\	.	4aa\	.	.	.	.	.	4ff#\	4aa\
8D\	.	.	.	.	.	.	.	.	.	.	.
8D\J	.	16ee\LL	.	16gg\LL	.	.	.	.	.	16ee\LL	16gg\LL
.	.	16dd\JJ	.	16ff#\JJ	.	.	.	.	.	16dd\JJ	16ff#\JJ
!	!	!	!	!	!	!	!	!	!	!LO:LB:g=original	!
=5	=5	=5	=5	=5	=5	=5	=5	=5	=5	=5	=5
8A\L	7_	8cc#\L	.	16ee\LL	.	0r	.	0r	.	8a/L	8ee\L
.	.	.	.	16cc#\	.	.	.	.	.	.	.
!	!	!	!	!	!	!	!	!	!	!LO:SIC:s=8a	!
8A\	.	8cc#\	.	16a\	.	.	.	.	.	8a/J	8ee\
.	.	.	.	16ee\JJ	.	.	.	.	.	.	.
!	!	!	!	!	!	!	!	!	!	!LO:SIC:s=8ee	!
8A\	.	8ee\	.	16gg\LL	.	.	.	.	.	8ee\L	8gg\
.	.	.	.	16ee\	.	.	.	.	.	.	.
8A\J	.	8ee\J	.	16cc#\	.	.	.	.	.	8ee\J	8gg\J
.	.	.	.	16gg\JJ	.	.	.	.	.	.	.
!	!	!LO:SIC:s=8ddL	!	!LO:LB:g=original	!	!	!	!	!	!	!
8D\L	X	8dd\	.	8ff#\	.	.	.	.	.	8dd\	8ff#\
!	!	!LO:SIC:s=8ff#	!	!	!	!	!	!	!	!	!
8D\	.	8ff#\L	.	4aa\	.	.	.	.	.	4ff#\	4aa\
!	!	!LO:SIC:s=8ee	!	!	!	!	!	!	!	!	!
8D\	.	8ee\J	.	.	.	.	.	.	.	.	.
!	!	!LO:SIC:s=8ddJ	!	!	!	!	!	!	!	!	!
8D\J	.	8dd\	.	16gg\LL	.	.	.	.	.	16ee\LL	16gg\LL
.	.	.	.	16ff#\JJ	.	.	.	.	.	16dd\JJ	16ff#\JJ
!	!	!	!	!	!	!	!	!	!	!	!LO:LB:g=original
=6	=6	=6	=6	=6	=6	=6	=6	=6	=6	=6	=6
8G\L	.	16gg\LL	.	16bb\LL	.	.	.	.	.	8gg\L	8bb\L
.	.	16ff#\	.	16aa\J	.	.	.	.	.	.	.
!	!	!LO:MO:mod=8ggJJ	!	!	!	!	!	!	!	!	!
8G\J	.	16gg\JJ	.	8bb\J	.	.	.	.	.	8gg\J	8bb\J
!	!	!LO:MO:mod=.	!	!	!	!	!	!	!	!	!
.	.	16r	.	.	.	.	.	.	.	.	.
4r	.	16r	.	16r	.	.	.	.	.	4r	4r
.	.	16g/LL	.	16b/LL	.	.	.	.	.	.	.
.	.	16f#/	.	16a/	.	.	.	.	.	.	.
.	.	16e/JJ	.	16g/JJ	.	.	.	.	.	.	.
!LO:LB:g=original	!	!	!	!	!	!	!	!	!	!	!
8D\L	.	16ff#\LL	.	16aa\LL	.	.	.	.	.	8ff#\L	8aa\L
.	.	16ee\J	.	16gg\J	.	.	.	.	.	.	.
8D\J	.	8ff#\J	.	8aa\J	.	.	.	.	.	8ff#\J	8aa\J
4r	.	16r	.	16r	.	.	.	.	.	4r	4r
.	.	16f#/LL	.	16a/LL	.	.	.	.	.	.	.
.	.	16e/	.	16g/	.	.	.	.	.	.	.
.	.	16d/JJ	.	16f#/JJ	.	.	.	.	.	.	.
=7	=7	=7	=7	=7	=7	=7	=7	=7	=7	=7	=7
8A\L	7	16ee\LL	.	16gg\LL	.	1r	.	1r	.	8ee\L	8gg\L
.	.	16dd\J	.	16ff#\J	.	.	.	.	.	.	.
8A\J	.	8ee\J	.	8gg\J	.	.	.	.	.	8ee\J	8gg\J
4r	.	16r	.	16r	.	.	.	.	.	4r	4r
.	.	16e/LL	.	16g/LL	.	.	.	.	.	.	.
.	.	16d/	.	16f#/	.	.	.	.	.	.	.
.	.	16c#/JJ	.	16e/JJ	.	.	.	.	.	.	.
!LO:TX:a:t=P:problem=mixed beam	!	!	!	!	!	!	!	!	!	!	!
8D\L	.	8ff#\L	.	8aa\L	.	.	.	.	.	8ff#\L	8aa\L
8G\	.	16ee\L	.	16gg\L	.	.	.	.	.	16ee\L	16gg\L
.	.	16dd\JJ	.	16ff#\JJ	.	.	.	.	.	16dd\JJ	16ff#\JJ
8A\	.	4cc#\	.	4ee\	.	.	.	.	.	8a/L	4ee\
8AA/J	.	.	.	.	.	.	.	.	.	8a/J	.
!	!	!LO:LB:g=original	!	!	!	!	!	!	!	!	!
=8	=8	=8	=8	=8	=8	=8	=8	=8	=8	=8	=8
!!LO:TX:a:t= :mod=Tutti
!LO:TX:a:t=Tutti:mod=	!	!	!	!	!	!	!	!	!	!LO:SIC:s=8ddL	!
8D\L	.	8dd\L	.	8dd\L	.	4.D/	A-	4.ff#\	A-	8dd'\L	8ff#\L
!	!	!	!	!	!	!	!	!	!	!LO:SIC:s=8ff#	!
8D\	.	8ff#\	.	8aa\	.	.	.	.	.	8ff#'\	8aa\
!	!	!	!	!	!	!	!	!	!	!LO:SIC:s=8ff#	!
8D\	.	8ff#\	.	8aa\	.	.	.	.	.	8ff#'\	8aa\
!	!	!	!	!	!	!	!	!	!	!LO:SIC:s=8ff#J	!
8D\J	.	8ff#\J	.	8aa\J	.	8D/	-gnus	8ff#\	-gnus	8ff#'\J	8aa\J
!LO:MO:mod=*tremolo	!	!	!	!LO:MO:mod=*tremolo	!	!LO:MO:mod=*null:null	!	!LO:MO:mod=*null:null	!	!	!LO:MO:mod=*tremolo
*null	*	*tremolo	*	*null	*	*2\right	*	*2\right	*	*tremolo	*null
!	!	!LO:N:vis=4	!	!	!	!	!	!	!	!	!
8G\L	.	8gg\L	.	8bb\L	.	2G\	De-	2dd	De-	8gg\L	8bb\L
8G\	.	8gg\	.	8bb\	.	.	.	.	.	8gg\	8bb\
8G\	.	8gg\	.	8bb\	.	.	.	.	.	8gg\	8bb\
8G\J	.	8gg\J	.	8bb\J	.	.	.	.	.	8gg\J	8bb\J
!LO:MO:mod=*Xtremolo	!	!	!	!LO:MO:mod=*Xtremolo	!	!	!	!	!	!	!LO:MO:mod=*Xtremolo
*null	*	*Xtremolo	*	*null	*	*	*	*	*	*Xtremolo	*null
=9	=9	=9	=9	=9	=9	=9	=9	=9	=9	=9	=9
!	!	!LO:TX:a:t=P:problem=mixed beam	!	!LO:TX:a:t=P:problem=mixed beam	!	!	!	!	!	!	!
8D/	.	8ff#\L	.	8aa\L	.	8D/	-i	8ff#\	-i	8ff#\	4aa\
8r	.	8f#/	.	8a/	.	8r	.	8a\	qui	8r	.
!	!	!	!	!	!	!	!	!LO:SIC:s=8aL	!	!	!
4r	.	8f#/	.	8a/	.	4r	.	8bL	tol-	4r	4r
!	!	!	!	!	!	!	!	!LO:SIC:s=8bJ	!	!	!
.	.	8g/J	.	8b/J	.	.	.	8cc#\J	.	.	.
!LO:TX:t=P:problem=w źródle brak pauzy ósemkowej	!	!LO:TX:a:t=P:problem=mixed beam	!	!	!	!	!	!	!	!	!
8ryy	.	8a/L	.	8ccn\L	.	8r	.	8ccn\	-lis	2r	2r
!	!	!LO:SIC:s=8ff#	!	!	!	!	!	!	!	!	!
8F#\L	5	8ff#\J	.	8aa\	.	8F#\	pec-	8cc\	pec-	.	.
!	!	!LO:SIC:s=8ff#	!	!	!	!	!	!	!	!	!
8F#\	6	8ff#\L	.	8aa\	.	8F#\	-ca-	8cc\	-ca-	.	.
8F#\J	.	8ff#\J	.	8aa\J	.	8F#\	-ta	8cc\	-ta	.	.
=10	=10	=10	=10	=10	=10	=10	=10	=10	=10	=10	=10
8G\L	.	8gg\L	.	8bb\L	.	8G\	mun-	8b\	mun-	1r	1r
8G\J	.	8gg\J	.	8bb\J	.	8G\	-di	8b\	-di	.	.
4r	.	4r	.	4r	.	4r	.	8dd\	mi-	.	.
.	.	.	.	.	.	.	.	8dd	-se-	.	.
!	!	!	!	!LO:LB:g=original	!	!	!	!	!	!	!
*	*	*tremolo	*	*tremolo	*	*	*	*	*	*	*
!	!	!	!	!	!	!	!LO:MO:mod=mi-	!	!	!	!
8B\L	.	8b/L	.	8dd\L	.	8B\	Mi-	2dd\	-re-	.	.
8A\	.	8b/	.	8dd\	.	8A\	-se-	.	.	.	.
!LO:SIC:s=8G#	!	!	!	!	!	!	!	!	!	!	!
8G\	.	8b/	.	8dd\	.	8G#X\	-re-	.	.	.	.
8F#\J	.	8b/J	.	8dd\J	.	8F#\	-re	.	.	.	.
*	*	*Xtremolo	*	*Xtremolo	*	*	*	*	*	*	*
=11	=11	=11	=11	=11	=11	=11	=11	=11	=11	=11	=11
8E\L	.	8dd\L	.	8bb\L	.	8E\	mi-	4.dd\	-re-	2r	2r
8F#\	.	8b\	.	8dd\	.	8F#\	-se-	.	.	.	.
8G#X\	6	8b\	.	8dd\	.	8G#X\	-re-	.	.	.	.
8E\J	.	8b\J	.	8dd\J	.	8E\	-re	8dd\	-re	.	.
!	!	!	!	!	!	!LO:LB:g=original	!	!	!LO:MO:mod=no-	!	!
8A\L	.	4a/	.	8cc#\L	.	8A\L	no-	8cc#\L	No-	4ee\	4aa\
!LO:SIC:s=8D	!	!	!	!	!	!	!	!	!	!	!
8D\J	.	.	.	8aa\	.	8D\J	.	16b\	.	.	.
.	.	.	.	.	.	.	.	16a\J	.	.	.
!LO:SIC:s=8E	!	!	!	!	!	!	!	!	!	!	!
!LO:TX:a:t=P:problem=mixed beam	!	!LO:SIC:s=4b	!	!	!	!LO:TX:a:t=P:problem=mixed beam	!	!	!	!	!
8E\L	.	4a/	.	8b\	.	8E\L	.	4b\	.	4ee\	4gg#X\
8EE/J	.	.	.	8gg#X\J	.	8EE/J	.	.	.	.	.
!	!	!	!	!	!	!	!	!LO:LB:g=original	!	!LO:LB:g=original	!
=12	=12	=12	=12	=12	=12	=12	=12	=12	=12	=12	=12
!	!	!	!LO:DY:t= :mod=%s	!	!	!	!	!	!	!	!
!	!	!	!LO:MO:mod=!LO&colon;DY&colon;ed=brack	!	!	!	!	!	!	!	!
!LO:TX:b:t=Solo:mod=	!	!	!null	!	!LO:DY:t=pia.:mod=%s	!	!	!	!	!	!
8AA/L	.	8cc#\L	p	8ee\L	p	4AA/	-bis	4a\	-bis	4ee\	4aa\
8AA/	.	8b\	.	8dd\	.	.	.	.	.	.	.
8AA/	.	8a\	.	8cc#\	.	4r	.	4r	.	4r	4r
8AA/J	.	8b\J	.	8dd\J	.	.	.	.	.	.	.
8AA/L	.	4cc#\	.	4ee\	.	2r	.	2r	.	2r	2r
8BB/	.	.	.	.	.	.	.	.	.	.	.
8C#/	.	8r	.	8r	.	.	.	.	.	.	.
8D/J	.	8dd\	.	8ff#\	.	.	.	.	.	.	.
!LO:LB:g=original	!	!	!	!	!	!	!	!	!	!	!
=13	=13	=13	=13	=13	=13	=13	=13	=13	=13	=13	=13
!LO:TX:a:t=P:problem=mixed beam	!	!	!	!	!	!	!	!	!	!	!
8AA/L	.	8cc#\L	.	8ee\L	.	00r	.	00r	.	00r	00r
!LO:SIC:s=8D	!	!	!	!	!	!	!	!	!	!	!
8D\J	.	16b\L	.	16dd\L	.	.	.	.	.	.	.
.	.	16a\JJ	.	16cc#\JJ	.	.	.	.	.	.	.
!LO:SIC:s=8E	!	!	!	!	!	!	!	!	!	!	!
!LO:TX:a:t=P:problem=mixed beam	!	!	!	!	!	!	!	!	!	!	!
8E\L	.	8b/L	.	8dd\L	.	.	.	.	.	.	.
8EE/J	.	16a/L	.	16cc#\L	.	.	.	.	.	.	.
.	.	16g#X/JJ	.	16b\JJ	.	.	.	.	.	.	.
8AA/L	.	4a/	.	8cc#\L	.	.	.	.	.	.	.
8AA/	.	.	.	8a\J	.	.	.	.	.	.	.
8AA/	.	8r	.	8r	.	.	.	.	.	.	.
8AA/J	.	8dd\	.	8ff#\	.	.	.	.	.	.	.
=14	=14	=14	=14	=14	=14	=14	=14	=14	=14	=14	=14
8AA/L	.	8cc#\L	.	8ee\L	.	.	.	.	.	.	.
!LO:SIC:s=8D	!	!	!	!	!	!	!	!	!	!	!
8D/J	.	16b\L	.	16dd\L	.	.	.	.	.	.	.
.	.	16a\JJ	.	16cc#\JJ	.	.	.	.	.	.	.
!LO:SIC:s=8E	!	!	!	!	!	!	!	!	!	!	!
!LO:TX:a:t=P:problem=mixed beam	!	!	!	!	!	!	!	!	!	!	!
8E\L	.	8b/L	.	8dd\L	.	.	.	.	.	.	.
8EE/J	.	16a/L	.	16cc#\L	.	.	.	.	.	.	.
!	!	!LO:TX:t=P:problem=krzyżyk z prawej strony nuty	!	!	!	!	!	!	!	!	!
.	.	16g#X/JJ	.	16b\JJ	.	.	.	.	.	.	.
8AA/L	.	4a/	.	8cc#\L	.	.	.	.	.	.	.
!	!	!	!	!LO:SIC:s=8aJ	!	!	!	!	!	!	!
8AA/	.	.	.	8b\J	.	.	.	.	.	.	.
8AA/	.	8r	.	8r	.	.	.	.	.	.	.
8AA/J	.	8a/	.	8cc#\	.	.	.	.	.	.	.
=15	=15	=15	=15	=15	=15	=15	=15	=15	=15	=15	=15
8E\L	7#_	8g#X/L	.	16b/LL	.	.	.	.	.	.	.
.	.	.	.	16e/	.	.	.	.	.	.	.
8E\	.	8g#/J	.	16g#X/	.	.	.	.	.	.	.
.	.	.	.	16b/JJ	.	.	.	.	.	.	.
8E\	.	8b/L	.	16dd\LL	.	.	.	.	.	.	.
.	.	.	.	16b\	.	.	.	.	.	.	.
8E\J	.	8b/J	.	16g#\	.	.	.	.	.	.	.
.	.	.	.	16dd\JJ	.	.	.	.	.	.	.
!	!	!	!	!LO:LB:g=original	!	!	!	!	!	!	!
8A\L	X	8a/	.	8cc#\	.	.	.	.	.	.	.
8A\	.	4cc#\	.	4ee\	.	.	.	.	.	.	.
8A\	.	.	.	.	.	.	.	.	.	.	.
8A\J	.	16b/LL	.	16dd\LL	.	.	.	.	.	.	.
.	.	16a/JJ	.	16cc#\JJ	.	.	.	.	.	.	.
=16	=16	=16	=16	=16	=16	=16	=16	=16	=16	=16	=16
*	*	*	*	*^	*	*	*	*	*	*	*
!	!	!LO:SIC:s=8g#L	!	!	!	!	!	!	!	!	!	!
8E\L	7#_	8g/L	.	16b/LL	4ryyyy	.	.	.	.	.	.	.
.	.	.	.	16e/	.	.	.	.	.	.	.	.
!	!	!LO:SIC:s=8g#	!	!LO:SIC:s=16g#	!	!	!	!	!	!	!	!
8E\	.	8g/	.	16g/	.	.	.	.	.	.	.	.
.	.	.	.	16b/JJ	.	.	.	.	.	.	.	.
8E\	.	8b/	.	16dd/LL	8ryyyy	.	.	.	.	.	.	.
!	!	!	!	!LO:SIC:s=16b	!	!	!	!	!	!	!	!
.	.	.	.	16b/JJ	.	.	.	.	.	.	.	.
!	!	!	!	!LO:SIC:s=16g#	!	!	!	!	!	!	!	!
8E\J	.	8b/J	.	16g/LL	16ryyyy	.	.	.	.	.	.	.
!	!	!	!	!	!LO:MO:mod=16ryyyy	!	!	!	!	!	!	!
.	.	.	.	16dd/JJ	16b\	.	.	.	.	.	.	.
!	!	!LO:LB:g=original	!	!	!	!	!	!	!	!	!	!
8A\L	X	8a/	.	8cc#\	2ryyyy	.	.	.	.	.	.	.
8A\	.	4cc#/	.	4ee\	.	.	.	.	.	.	.	.
8A\	.	.	.	.	.	.	.	.	.	.	.	.
8A\J	.	16b/LL	.	16dd/LL	.	.	.	.	.	.	.	.
.	.	16a/JJ	.	16cc#/JJ	.	.	.	.	.	.	.	.
*	*	*	*	*v	*v	*	*	*	*	*	*	*
=17	=17	=17	=17	=17	=17	=17	=17	=17	=17	=17	=17
!LO:TX:t=P:problem=brak taktu nr 17	!	!	!	!	!	!	!	!	!	!	!
!LO:MO:mod=8DL@	!	!	!	!	!	!	!	!	!	!	!
1ryy	.	16dd\LL	.	16ff#\LL	.	00r	.	0r	.	00r	00r
.	.	16cc#\J	.	16ee\J	.	.	.	.	.	.	.
!LO:MO:null:mod=8DJ@	!	!	!	!	!	!	!	!	!	!	!
.	.	8dd\J	.	8ff#\J	.	.	.	.	.	.	.
!LO:MO:null:mod=4r@	!	!	!	!	!	!	!	!	!	!	!
.	.	16r	.	16r	.	.	.	.	.	.	.
.	.	16d/LL	.	16f#/LL	.	.	.	.	.	.	.
.	.	16c#/	.	16e/	.	.	.	.	.	.	.
.	.	16B/JJ	.	16d/JJ	.	.	.	.	.	.	.
!LO:MO:null:mod=8AAL@	!	!	!	!	!	!	!	!	!	!	!
.	.	16cc#\LL	.	16ee\LL	.	.	.	.	.	.	.
.	.	16b\J	.	16dd\J	.	.	.	.	.	.	.
!LO:MO:null:mod=8AAJ@	!	!	!	!	!	!	!	!	!	!	!
.	.	8cc#\J	.	8ee\J	.	.	.	.	.	.	.
!LO:MO:null:mod=4r@	!	!	!	!	!	!	!	!	!	!	!
.	.	16r	.	16r	.	.	.	.	.	.	.
.	.	16c#/LL	.	16e/LL	.	.	.	.	.	.	.
.	.	16B/	.	16d/	.	.	.	.	.	.	.
.	.	16A/JJ	.	16c#/JJ	.	.	.	.	.	.	.
=18	=18	=18	=18	=18	=18	=18	=18	=18	=18	=18	=18
8D/L	7	16b/LL	.	16dd\LL	.	.	.	.	.	.	.
.	.	16a/J	.	16cc#\J	.	.	.	.	.	.	.
8D/J	.#	8b/J	.	8dd\J	.	.	.	.	.	.	.
4r	.	16r	.	16r	.	.	.	.	.	.	.
.	.	16B/LL	.	16d/LL	.	.	.	.	.	.	.
.	.	16A/	.	16c#/	.	.	.	.	.	.	.
.	.	16G#X/JJ	.	16B/JJ	.	.	.	.	.	.	.
!	!	!	!	!LO:TX:a:t=P:problem=mixed beam	!	!	!	!	!	!	!
8A\L	.	8a/L	.	8cc#\L	.	.	.	.	.	.	.
8D\J	.	8a/	.	16aa\L	.	.	.	.	.	.	.
.	.	.	.	16a/JJ	.	.	.	.	.	.	.
!LO:TX:a:t=P:problem=mixed beam	!	!	!	!LO:TX:b:t=Verte:mod=	!	!	!	!	!	!	!
8E\L	.	8g#X/	.	4b\	.	.	.	.	.	.	.
8EE/J	#	8g#/J	.	.	.	.	.	.	.	.	.
!	!	!	!	!LO:PB:g=original	!	!	!	!	!	!	!
=19	=19	=19	=19	=19	=19	=19	=19	=19	=19	=19	=19
!LO:TX:a:t=Tutti:mod=	!	!	!	!	!	!	!	!	!	!	!
8AA/L	.	8a/	.	8a/	.	.	.	4.ee\	A-	.	.
8AA/	.	4ee\	.	4ccc#\	.	.	.	.	.	.	.
8AA/	.	.	.	.	.	.	.	.	.	.	.
8AA/J	.	8dd\	.	8bb\	.	.	.	8dd\	-gnus	.	.
8AA/L	.	16cc#\LL	.	16aa\LL	.	.	.	16cc#\L	De-	.	.
.	.	16dd\J	.	16bb\J	.	.	.	16dd\J	.	.	.
8AA/	.	8ee\J	.	8ccc#\J	.	.	.	8ee\	-i	.	.
8AA/	6 4	8r	.	8r	.	.	.	8r	.	.	.
8AA/J	.	8ff#\	.	8ddd\	.	.	.	8ff#\	qui	.	.
!LO:LB:g=original	!	!	!	!	!	!	!	!	!	!	!
=20	=20	=20	=20	=20	=20	=20	=20	=20	=20	=20	=20
8AA/L	.	8ee\L	.	8ccc#\L	.	.	.	8ee\L	tol-	.	.
8BB/	.	8dd\J	.	8bb\J	.	.	.	8dd\J	.	.	.
8C#/	.	16cc#\LL	.	16aa\LL	.	.	.	16cc#\	-lis	.	.
.	.	16ee\	.	16ccc#\	.	.	.	16ee\	pec-	.	.
8D/J	.	16dd\	.	16bb\	.	.	.	16dd\	-ca-	.	.
.	.	16cc#\JJ	.	16aa\JJ	.	.	.	16cc#\	-ta	.	.
8E\L	.	8b\L	.	8gg#X\L	.	.	.	8b\	mun-	.	.
8G#X\J	.	8b\J	.	8gg#\J	.	.	.	8b\	-di	.	.
!	!	!	!	!	!	!	!	!	!LO:MO:mod=mi-	!	!
8A\L	.	8ee\L	.	16ccc#\LL	.	.	.	8ee\	Mi-	.	.
.	.	.	.	16bb\J	.	.	.	.	.	.	.
8A\J	.	8ee\J	.	8ccc#\J	.	.	.	16dd\L	-se-	.	.
.	.	.	.	.	.	.	.	16ee\J	.	.	.
=21	=21	=21	=21	=21	=21	=21	=21	=21	=21	=21	=21
4d\	.	8ff#\L	.	8ddd\L	.	0r	.	8ff#\L	-re-	0r	0r
.	.	8ee\	.	8ccc#\	.	.	.	8ee\J	.	.	.
4r	.	8ff#\	.	8ddd\	.	.	.	8ff#\L	.	.	.
.	.	8ee\J	.	8ccc#\J	.	.	.	8ee\J	.	.	.
!	!	!LO:TX:a:t=P:problem=mixed beam	!	!LO:TX:a:t=P:problem=mixed beam	!	!	!	!	!LO:MO:mod=.	!	!
8r	.	8dd\L	.	8bb\L	.	.	.	8dd\	-re-	.	.
!	!	!LO:SIC:s=8e	!	!	!	!	!	!LO:TX:a:t=X2:mod=	!	!	!
8E\L	.	8d/J	.	8e/	.	.	.	8dd\	-re	.	.
!	!	!LO:SIC:s=8g#	!	!	!	!	!	!	!	!	!
8G#X\J	.	8g/L	.	8g#X/	.	.	.	8r	.	.	.
!	!	!	!	!	!	!	!	!LO:LB:g=original	!	!	!
!	!	!	!	!	!	!	!	!LO:TX:a:t=tro \nbis:mod=	!	!	!
!	!	!	!	!	!	!	!	!LO:SIC:s=16dd	!	!	!
8r	.	8dd/J	.	8bb\J	.	.	.	16cc#\	mi-	.	.
!	!	!	!	!	!	!	!	!LO:SIC:s=16dd	!	!	!
.	.	.	.	.	.	.	.	16cc#\	-se-	.	.
=22	=22	=22	=22	=22	=22	=22	=22	=22	=22	=22	=22
!	!	!	!	!	!	!	!	!LO:SIC:s=8eeL	!	!	!
4A\	.	8ee\L	.	8ccc#\L	.	.	.	8ff#\L	-re-	.	.
!	!	!	!	!	!	!	!	!LO:SIC:s=8ddJ	!	!	!
.	.	8dd\	.	8bb\	.	.	.	8ee\J	.	.	.
!	!	!	!	!	!	!	!	!LO:SIC:s=8eeL	!	!	!
4r	.	8ee\	.	8ccc#\	.	.	.	8ff#\L	.	.	.
!	!	!	!	!	!	!	!	!LO:SIC:s=8ddJ	!	!	!
.	.	8dd\J	.	8bb\J	.	.	.	8ee\J	.	.	.
!	!	!	!	!LO:TX:a:t=P:problem=mixed beam	!	!	!	!LO:SIC:s=8cc#	!LO:MO:mod=.	!	!
8r	.	8cc#\L	.	8aa\L	.	.	.	8dd\	-re-	.	.
!	!	!	!	!	!	!	!	!LO:SIC:s=8cc#	!	!	!
8A\L	.	8a\	.	8a/	.	.	.	8dd\	-re	.	.
8c#\J	.	8cc#\	.	8cc#/	.	.	.	8r	.	.	.
8r	.	8cc#\J	.	8aa\J	.	.	.	16cc#\	mi-	.	.
.	.	.	.	.	.	.	.	16cc#\	-se-	.	.
=23	=23	=23	=23	=23	=23	=23	=23	=23	=23	=23	=23
2r	.	8dd\L	.	8bb\L	.	1r	.	8dd\L	-re-	1r	1r
.	.	8cc#\J	.	8aa\	.	.	.	8cc#\J	.	.	.
!	!	!LO:LB:g=original	!	!	!	!	!	!	!	!	!
!	!	!LO:SIC:s=4b	!	!	!	!	!	!	!	!	!
.	.	4b/L	.	8bb\	.	.	.	8dd\L	-re	.	.
.	.	.	.	8aa\J	.	.	.	8cc#\J	.	.	.
!	!	!LO:SIC:s=4a	!	!LO:TX:a:t=P:problem=mixed beam	!	!	!	!	!LO:MO:mod=no-	!	!
!	!	!	!	!LO:SIC:s=8bL	!	!	!	!	!	!	!
8A\L	.	4a/J	.	8g/L	.	.	.	8b\	No-	.	.
8D\J	.	.	.	16aa\L	.	.	.	8cc#\	.	.	.
.	.	.	.	16a/JJ	.	.	.	.	.	.	.
!LO:TX:a:t=P:problem=mixed beam	!	!	!	!	!	!	!	!	!	!	!
8E\L	.	4g#X/	.	4b/	.	.	.	4b	.	.	.
8EE/J	.	.	.	.	.	.	.	.	.	.	.
!	!	!	!	!LO:LB:g=original	!	!	!	!	!	!	!
=24	=24	=24	=24	=24	=24	=24	=24	=24	=24	=24	=24
8AA/L	.	8a/L	.	8a/L	.	2r	.	4a\	-bis	2r	2r
!LO:SIC:s=8C#	!	!	!	!	!	!	!	!	!	!	!
8C#/J	.	8c#/	.	8c#/	.	.	.	.	.	.	.
!LO:SIC:s=8D	!	!	!	!	!	!	!	!	!	!	!
8D\L	.	8d/	.	8d/	.	.	.	4r	.	.	.
8E\J	.	8e/J	.	8e/J	.	.	.	.	.	.	.
8AA/	.	8A/	.	8A/	.	8r	.	8r	.	8r	8r
4A\	.	4cc#\	.	4aa\	.	4A\	A-	4ee\	A-	8a/L	4ee\
!	!	!	!	!	!	!	!	!	!	!LO:N:vis=16	!
.	.	.	.	.	.	.	.	.	.	8a/	.
!	!	!	!	!	!	!	!	!	!	!LO:N:vis=16	!
8A\	.	8cc#\	.	8aa\	.	8A\	-gnus	8ee\	-gnus	8a/J	8ee\
!	!	!	!	!	!	!	!	!	!	!	!LO:LB:g=original
=25	=25	=25	=25	=25	=25	=25	=25	=25	=25	=25	=25
8d\L	.	8dd\L	.	8ff#\L	.	8d\	De-	8ff#\	De-	8dd\L	8ff#\L
8A\J	.	8cc#\J	.	8ee\J	.	8A\	-i	8ee\	-i	8a\J	8ee\J
8r	.	8r	.	8r	.	8r	.	8r	.	4r	8r
!	!	!	!	!	!	!	!	!	!LO:MO:mod=qui	!	!
8A\	.	8cc#\	.	8ee\	.	8A\	qui	8ee\	qio	.	8ee\
8d\L	.	4dd\	.	4ff#\	.	8d\L	tol-	4ff#\	tol-	8a/L	4ff#\
!	!	!	!	!	!	!LO:SIC:s=8c#J	!	!	!	!	!
8c#\	.	.	.	.	.	8B\J	.	.	.	8dd/J	.
!	!	!	!	!	!	!LO:SIC:s=8dL	!	!	!	!	!
8d\	.	4b\	.	4gg#X\	.	8d\	-lis	4dd	-lis	4r	4r
!	!	!	!	!	!	!LO:SIC:s=8BJ	!LO:MO:mod=.	!	!	!	!
8B\J	.	.	.	.	.	8B\	pec-	.	.	.	.
=26	=26	=26	=26	=26	=26	=26	=26	=26	=26	=26	=26
!LO:TX:a:t=P:problem=mixed beam	!	!	!	!	!	!	!LO:MO:null:mod=pec-	!	!	!	!
8A\L	.	8cc#\L	.	8aa\L	.	8A\	.	8ee\	pec-	0r	0r
16AA/L	.	16cc#\L	.	8aa\	.	16AA/	-ca-	16ee\	-ca-	.	.
16BB/JJ	.	16dd\JJ	.	.	.	16BB/	-ta	16dd\	-ta	.	.
!	!	!	!	!	!	!	!	!LO:TX:t=P:problem=w źródle zła suma wartości rytmicznych w takcie	!	!	!
!	!	!	!	!	!	!	!	!LO:N:vis=16	!	!	!
8C#/L	6	8ee\L	.	8aa\	.	8C#/	mun-	8cc#\	mun-	.	.
8D/J	.	8ff#\J	.	8aa\J	.	8D/	-di	8ff#\	-di	.	.
!LO:LB:g=original	!	!	!	!	!	!	!	!	!	!	!
8E\L	#	4ee\	.	4gg#X\	.	8E/	mi-	8b\	mun-	.	.
!	!	!	!	!	!	!LO:LB:g=original	!	!	!	!	!
8E\J	.	.	.	.	.	8E\	-se-	8b\	-di	.	.
4r	.	4r	.	4r	.	8E\	-re-	4r	.	.	.
.	.	.	.	.	.	8E\	-re	.	.	.	.
!	!	!	!	!	!	!	!	!LO:LB:g=original	!	!	!
=27	=27	=27	=27	=27	=27	=27	=27	=27	=27	=27	=27
!	!	!	!	!	!	!	!	!	!LO:MO:mod=mi-	!	!
8B\L	.	8b/L	.	8dd\L	.	2E\	no-	8dd\	Mi-	.	.
!LO:SIC:s=8A	!	!	!	!	!	!	!	!	!	!	!
8A\J	.	8b/	.	8dd\	.	.	.	8dd\	-se-	.	.
!LO:SIC:s=8G#	!	!	!	!	!	!	!	!	!	!	!
8G#X\L	6	8b/	.	8dd\	.	.	.	8dd\	-re-	.	.
8E\J	.	8b/J	.	8dd\J	.	.	.	8dd\	-re	.	.
!	!	!	!	!	!	!LO:SIC:s=8AL	!	!	!LO:MO:mod=no-	!	!
8A\L	.	8a\L	.	8cc#\L	.	8A\	.	4cc#\	No-	.	.
!LO:SIC:s=8D	!	!	!	!	!	!LO:SIC:s=8DJ	!	!	!	!	!
8D\J	.	8cc#\	.	8aa\J	.	8D\	.	.	.	.	.
!LO:SIC:s=8E	!	!	!	!	!	!	!	!	!	!	!
!LO:TX:a:t=P:problem=mixed beam	!	!	!	!	!	!LO:TX:a:t=P:problem=mixed beam	!	!	!	!	!
8E\L	.	8b\	.	8b\L	.	8E\L	.	4b\	.	.	.
8EE/J	.	8dd\J	.	8gg#X\J	.	8EE/J	.	.	.	.	.
=28	=28	=28	=28	=28	=28	=28	=28	=28	=28	=28	=28
4AA/	.	4cc#\	.	4aa\	.	4AA/	-bis	4a\	-bis	2r	2r
4r	.	4r	.	4r	.	8A\	mi-	4r	.	.	.
.	.	.	.	.	.	8A\	-se-	.	.	.	.
!	!	!	!	!	!	!	!	!	!LO:MO:mod=mi-	!	!
8e\L	.	8ee\L	.	8ggn\L	.	2A\	-re-	8gg\	Mi-	8ee\L	8gg\L
!LO:SIC:s=8d	!	!	!	!	!	!	!	!	!	!	!
8d\J	.	8ee\	.	8gg\	.	.	.	8gg\	-se-	8ee\	8gg\
!LO:SIC:s=8c#	!	!	!	!	!	!	!	!	!	!	!
8c#\L	.	8ee\	.	8gg\	.	.	.	8gg\	-re-	8ee\	8gg\
8A\J	.	8ee\J	.	8gg\J	.	.	.	8gg\	-re	8ee\J	8gg\J
=29	=29	=29	=29	=29	=29	=29	=29	=29	=29	=29	=29
!	!	!	!	!	!	!LO:SIC:s=8dL	!	!	!LO:MO:mod=no-	!	!
8d\L	.	4dd\	.	8ff#\L	.	8d\	-re	8ff#\L	No-	8ff#\L	8aa\L
!LO:SIC:s=8G	!	!	!	!	!	!LO:SIC:s=8GJ	!LO:MO:mod=.	!LO:SIC:s=16ee	!	!	!
8G\J	.	.	.	8ddd\J	.	8G\	no-	16dd\	.	16ee\L	16gg\L
!	!	!	!	!	!	!	!	!LO:SIC:s=16ddJ	!	!	!
.	.	.	.	.	.	.	.	16cc#\J	.	16dd\JJ	16ff#\JJ
!LO:SIC:s=8A	!	!	!	!	!	!	!	!	!	!	!
!LO:TX:a:t=P:problem=mixed beam	!	!	!	!	!	!LO:TX:a:t=P:problem=mixed beam	!LO:MO:null:mod=no-	!	!	!	!
8A\L	.	4cc#\	.	4ee\	.	8A\L	.	4ee\	.	8.a/L	8.ee\L
8AA/J	.	.	.	.	.	8AA/J	.	.	.	.	.
.	.	.	.	.	.	.	.	.	.	16a/Jk	16ee\Jk
!	!	!	!	!	!	!	!LO:MO:mod=-bis.	!	!LO:MO:mod=-bis.	!	!
2D/	.	2dd\	.	2dd\	.	2D/	-bis	2dd\	-bis	2f#/	2dd\
!LO:TX:b:t=Laus \nDeo. || Dona Nobis ut Kirie\nall(egr)o.:mod=	!	!LO:TX:b:t=Dona Nobis\nut Kirie\nallegro. L. Deo:mod=	!	!LO:TX:b:t=Dona Nobis ut Kirie\nallegro.\nLaus Deo.:mod=	!	!LO:TX:b:t=Laus Deo.\nDo Na Nobis ut Kirie:mod=	!	!	!	!LO:TX:b:t=Dona Nobis ut Kirie\nallo.:mod=	!LO:TX:b:t=Dona Nobis ut Kirie\nallo.:mod=
==	==	==	==	==	==	==	==	==	==	==	==
*-	*-	*-	*-	*-	*-	*-	*-	*-	*-	*-	*-
!!!system-decoration: [(g1)][(g2)][(g3)]<s7>
!!!RDF**kern: @ = marked note, color=grey
!!!filter-modern: shed -e "s/TX(.*):t=P:/tx$1:t=P:/LG" | sic -sq | modori -m | autostem -r | tie -s | humtr -p | shed -e "s/yy//"
!!!ENC: Krzysztof Stępień
!!!END: 2020-04-18
!!!ENC: Antoni Szymański
!!!END: 2020-10-04
!!!ENC-modern: Andrzej Kubiczek
!!!END-modern: 2022-07-01
!!!YEC: Copyright 2022 Narodowy Instytut Fryderyka Chopina (https://polishscores.org)
!!!YEM: License CC-BY-4.0 (https://creativecommons.org/licenses/by/4.0)
